X: 20181
Q: "And.e"
M: 3/4
L: 1/8
K: Am
(ed) |\
c2 A2 A2 | A3 (cAG) | A2 c2 d2 | {cd} e3 d c2 |\
c3 d (cd/e/) | G4 (ed) | c2 A2 A2 | A3 cAG |\
|: (gf) |\
e2 g2 a2 | g2 e2 d2 | c3 d e2 | {fed}e3 f g2 |\
{f}e2 d2 c2 | G4 (ed) | c2 A2 A2 | A3 (cAG) |\


